X: 2 % start of header
T:Torus:Taurus Tune
T:11 of 100,000,000,000,000
C: (Sid.)
O: Jeff Minter
R:Procedurally Generated
L: 1/8
K: D % scale: C major
V:1 name="Voice 1"
^A,16    |     |     |     | ^A,16    |     |     |     | F16    |     |     |     | ^G,16    |     |     |     | :|
V:2 name="Voice 2"
^D4    | ^D4    | ^A4    | ^C4    | ^D4    | ^D4    | ^A4    | ^C4    | ^A4    | ^A4    | f4    | ^G4    | ^C4    | ^C4    | ^G4    | B,4    | :|
V:3 name="Voice 3"
^G1^G1^d1^F1|^G1^G1^d1^F1|^d1^d1^a1^c1|^F1^F1^c1E1|^G1^G1^d1^F1|^G1^G1^d1^F1|^d1^d1^a1^c1|^F1^F1^c1E1|^d1^d1^a1^c1|^d1^d1^a1^c1|^a1^a1f'1^g1|^c1^c1^g1B1|^F1^F1^c1E1|^F1^F1^c1E1|^c1^c1^g1B1|E1E1B1D1|:|
